X: 01037
T: DELORIER'S DELIRIUM
C: Bob McQuillen Feb'75
B: Bob's Note Book 1 #37
%R: reel, march
Z: 2019 John Chambers <jc:trillian.mit.edu>
M: C
L: 1/8
K: D
fe \
| d2A2 Bcde | f2d2 ABAG | FAdf gfed | c2e2 e2fe |\
| d2A2 Bcde | f2d2 ABAG | FAdf gedc | d6 :|
|: cd \
| e2c2 A2de | f2d2 A2ef | gfed edcd | e2a2 a2cd |\
| e2c2 A2de | f2d2 A2ef | gfed cdec | d6 :|
%%begintext align
%% When you hear Larry's
%% marvelous flute playing,
%% you'll be in a delirium, too!
%%endtext

%%sep 1 1 500

%%sep 1 1 500

